X: 14
T: Inisheer
C: Tommy Walsh
Z: shawnthesheeple@gmail.com
S: https://thesession.org/tunes/211#setting43620
R: waltz
M: 3/4
L: 1/8
K: Gmaj
B3A Bd|B3A Bd|E3B AB|D3B AG|
B3A Bd|B3A Bd|G3B A/G/F|1 G3E DG:|2 G3A Bd||
e3f ed|B3A Bd|ef ed Bd|e3A Bd
e3f ed|B3A Bd|G3B A/G/F|G3A Bd
e3f ed|B3A Bd|gf ed Bd|e3A Bd
e3f ed|B3A Bd|D3B A/G/F|G6||

